X: 40332
T: Tom Burns' Polka
R: barndance
M: 4/4
K: Gmajor
DD|:D2 d2 B2 DD|D2 d2 B2 DD|D2 d2 B2 G2|F6 DD|D2 d2 c2 DD|D2 d2 c2 DD|D2 d2 c2 F2|1 G6 DD:|2 G6 z||
K:D
|:A2 FA d2 f2|a2 a2 a2 ^ga|b2 a2 f2 d2|dc c4|A2 ^GA c2 e2|a2 a2 a2 ^ga|b2 a2 e2_f2|f6 z|
A2 FA d2 f2|a2 a2 a2 ^ga|b2 a2 f2 d2|dc c4|A2 ^GA c2 e2|a2 a2 a2 ^ga|b2 a2 g2 c2|1 d6 z:|2 d6 DD||
K:G
|:D2 d2 B2 DD|D2 d2 B2 DD|D2 d2 B2 G2|F6 DD|D2 d2 c2 DD|D2 d2 c2 DD|D2 d2 c2 F2|1 G6 DD:|2 G6 z||
K:C
|:E4 G4|c4 e4|gggg g2 e2|f2 B2 B4|F4 G4|B4 d4|ffff f2 B2|c2e2 g4|
E4 G4|c4 e4|gggg g2 e2|f2 B2 B4|F4 G4|B4 d2 gg|g2 ba gfed|1 c2 c2 c4:|2 c2 c2 c2 DD||
K:G
|:D2 d2 B2 DD|D2 d2 B2 DD|D2 d2 B2 G2|F6 DD|D2 d2 c2 DD|1 D2 d2 c2 DD|D2 d2 c2 F2|G6 DD:|2 D2 d2c4|FGAB cdef|g4 z z||

